static/assets/img/icons/theme/code/control.svg

<svg height="24" viewBox="0 0 24 24" width="24" xmlns="http://www.w3.org/2000/svg"><g fill="none" fill-rule="evenodd"><path d="m0 0h24v24h-24z" opacity="0"/><path d="m12 6.5-8.35586425 7.2649112c-.42244879.3557463-1.0533006.3016733-1.40904695-.1207755-.35574635-.4224487-.30167334-1.0533005.12077545-1.4090469l8.64988505-7.79015561c.5823873-.49043135 1.4398146-.4667554 1.9942507.05506681l8.6853647 7.7718c.4021737.3785165.4213518 1.0113909.0428353 1.4135647-.3785165.4021737-1.0113909.4213518-1.4135647.0428353z" fill="#000" fill-rule="nonzero"/></g></svg>

<svg width="24px" height="24px" viewBox="0 0 24 24" version="1.1" xmlns="http://www.w3.org/2000/svg" xmlns:xlink="http://www.w3.org/1999/xlink">
    <title>Icon For Control</title>
    <g stroke="none" stroke-width="1" fill="none" fill-rule="evenodd">
        <rect opacity="0" x="0" y="0" width="24" height="24"></rect>
        <path d="M12,6.5 L3.64413575,13.7649112 C3.22168696,14.1206575 2.59083515,14.0665845 2.2350888,13.6441357 C1.87934245,13.221687 1.93341546,12.5908352 2.35586425,12.2350888 L11.0057493,4.44493319 C11.5881366,3.95450184 12.4455639,3.97817779 13,4.5 L21.6853647,12.2718 C22.0875384,12.6503165 22.1067165,13.2831909 21.7282,13.6853647 C21.3496835,14.0875384 20.7168091,14.1067165 20.3146353,13.7282 L12,6.5 Z" fill="#000000" fill-rule="nonzero"></path>
    </g>
</svg>
